X: 032074
T: Cran (The)
C: Joe Liddy
Z: BB
S: "The Leitrim Fiddler" (Dublin 1981)
L: 1/8
M: 6/8
R: jig
Q: 1/4 = 170
K: Ador
A/G/ | EAA BAG | EAA ABd | e3 gab | age dBG |
EAA BAG | EAA ABd | efg age | dBG A2 :|
g | a2b age | aga bge | g2g bag | age deg | 
a2b age | aga bge | deg age | dBG A2g |
a2b age | aga bge | g2g bag | age deg |
a2b age | gab c'2a | bag age | dBG A3 ||
